; Selected robox profile: dual, close valve "True"
; version 0.2
 ;FLAVOR:Marlin(Volumetric)
 ;TIME:2430

;POSTPROCESSED
; Selected robox profile: dual, close valve "True"
; version 0.2
 ;Generated with Cura_SteamEngine 3.6.0
T0
M82  ;absolute extrusion mode
T0  ; Select First tool - ensures post processing scripts function correctly.   Duplicate T0
M83  ;Set Extruder to Relative moves  
G90  ;Use X Y Z Absolute positioning - Home All Axes  
M104 S150  ; Set nozzle to temp so any ooze is squished on bed probe in subsquent levelling macros  
M140 S95.0  ; Start warming Bed  
M109 
M109 
 ; Wait for Nozzle to get to extruder temp.  
G0  ; Go to Zero position  
G0 Z5  ;Move up 5mm if homed  
G28 Y  ;Home Y  
G0 Y115  ;Position Y  
G39  ;Clear the bed levelling points  
G28 Z  ;Home Z  
G0 Z10  ;Move up 10mm if homed  
G28 X  ;Home X - End Home_all_Axis_in_sequence Macro  
  
M190 S95.0  ; Wait for Bed to get to temp.  
M104 S200  ; Double check to ensure nozzle temp  
M104 T200  ; Double check to ensure nozzle temp  
M109 
M109 
 ; Wait for Nozzle to get to extruder temp.  
M170 S40  ; Set Ambient temp (40°C PLA higher for plastics that warp e.g. 70° for ABS  
  
M128  ; Head light off to warn before move - Start of LED flash alert macro  
G4 P300  ; Hold for 300 milliseconds  
M129  ; Headlight on  
G4 P600  ; Hold light on for 600 msecs  
M128  ; Head light off  
G4 P300  ; Pause for 300 miliiseconds  
M129  ; Headlight on  
G4 P600  ; Hold light on for 600 msecs  
M128  ; Head light off  
G4 P300  ; Pause for 300 miliiseconds  
M129  ; Head light on  
G0 Y2 X105  ; Move to front - Remove leftover ooze macro  
M129  ; Head LED on - to see better  
G0 Z10  ; Lift head 10mm to make it easier to remove ooze with tweezers  
G4 P7000  ; Hold for 7000 milliseconds to remove old ooze  
M128  ; Head light off to warn before move - Start of LED flash alert macro  
G4 P300  ; Hold for 300 milliseconds  
M129  ; Headlight on  
G4 P600  ; Hold light on for 600 msecs  
M128  ; Head light off  
G4 P300  ; Pause for 300 miliiseconds  
M129  ; Headlight on  
G4 P600  ; Hold light on for 600 msecs  
M128  ; Head light off  
G4 P300  ; Pause for 300 miliiseconds  
M129  ; Head light on  
  
 ;Ensure the Gantry is Level  
G0 X20 Y75  ;Level Gantry Position 1  
G28 Z  ;Home Z  
G0 Z4  ;Move up 4mm  
G0 X180 Y75  ;Level Gantry Position 2  
G28 Z  ;Home Z  
G0 Z4  ;Move up 4mm  
G38  ;Level gantry   
  
 ; 7 point Bed probing  
G0 Y20  
G28 Z  
G0 Z2  
G0 X105  
G28 Z  
G0 Z2  
G0 X20  
G28 Z  
G0 Z2  
G0 Y130  
G28 Z  
G0 Z2  
G0 X105  
G28 Z  
G0 Z2  
G0 X180  
G28 Z  
G0 Z2  
G0 X105 Y75  
G28 Z  
G0 Z2  
G39 S0.5  ;set washout over the first 2mm   
  
 ; Purge Nozzles   
 ; Purge T1(Dual Material)  
G0 X180 Y2 Z0.4 ; 0.4mm before drag printhead into extrusion to pull off surplus  
T1  
G0 B1  
G1 B1 E5 F500  ; UnRetract the retract from retract at end of previous print  
G36 B1 E100 F1200 ;   
G1 B1 E100 X145 F250  
G0 Z1  
G0 B0  
  
  
 ;Purge T0 (Dual Material)  
G0 X70 Y2 Z0.4 ; 0.4mm before drag printhead into extrusion to pull off surplus  
T0  
G0 B1  
G1 D5 F500  ; UnRetract the retract from retract at end of previous print  
G36 D100 F1200 ;   
G1 D100 X110 F250  
G0 Z1  
G0 B0  
 ; End of Start gcode  
T0   ; Duplicate T0

M83  ;relative extrusion mode
G10
 M104 s200 T235  ;Robox Temp Nozzle fix 
  M140 S85 ; Robox Bed heat Fix 
 ;LAYER_COUNT:73

; Selected robox profile: dual, close valve "True"
; version 0.2
 M104 s200 T235  ;Robox Temp Nozzle fix 
  M140 S85 ; Robox Bed heat Fix 
 ;LAYER:0
M107
M104 T250 ; removed T1 from the middle
G0 F3600 X80.865 Y64.631 Z0.3
 ;TYPE:SKIRT
G11
G1 F1200 X81.076 Y64.42 B1 D0.05371
G1 X81.347 Y64.206 B1 D0.06216
G1 X81.661 Y64.059 B1 D0.06241
G1 X82.137 Y63.981 B1 D0.08682
G1 X109.863 Y63.981 B1 D4.99068
G1 X110.207 Y64.021 B1 D0.06234
G1 X110.532 Y64.138 B1 D0.06218
G1 X110.924 Y64.42 B1 D0.08692
G1 X111.135 Y64.631 B1 D0.05371
G1 X111.349 Y64.902 B1 D0.06216
G1 X111.496 Y65.216 B1 D0.06241
G1 X111.574 Y65.692 B1 D0.08682
G1 X111.574 Y90.308 B1 D4.43088
G1 X111.534 Y90.652 B1 D0.06234
G1 X111.417 Y90.977 B1 D0.06218
G1 X111.135 Y91.369 B1 D0.08692
G1 X110.924 Y91.58 B1 D0.05371
G1 X110.653 Y91.794 B1 D0.06216
G1 X110.339 Y91.941 B1 D0.06241
G1 X109.863 Y92.019 B1 D0.08682
G1 X82.137 Y92.019 B1 D4.99068
G1 X81.793 Y91.979 B1 D0.06234
G1 X81.468 Y91.862 B1 D0.06218
G1 X81.076 Y91.58 B1 D0.08692
G1 X80.865 Y91.369 B1 D0.05371
G1 X80.651 Y91.098 B1 D0.06216
G1 X80.504 Y90.784 B1 D0.06241
G1 X80.426 Y90.308 B1 D0.08682
G1 X80.426 Y65.692 B1 D4.43088
G1 X80.466 Y65.348 B1 D0.06234
G1 X80.583 Y65.023 B1 D0.06218
G1 X80.865 Y64.631 B1 D0.08692
G0 F3600 X81.29 Y65.056
G1 F1200 X81.501 Y64.845 B1 D0.05371
G1 X81.716 Y64.686 B1 D0.04813
G1 X81.968 Y64.597 B1 D0.04811
G1 X82.137 Y64.581 B1 D0.03056
G1 X109.863 Y64.581 B1 D4.99068
G1 X110.128 Y64.621 B1 D0.04824
G1 X110.369 Y64.737 B1 D0.04814
G1 X110.499 Y64.845 B1 D0.03042
G1 X110.71 Y65.056 B1 D0.05371
G1 X110.869 Y65.271 B1 D0.04813
G1 X110.958 Y65.523 B1 D0.04811
G1 X110.974 Y65.692 B1 D0.03056
G1 X110.974 Y90.308 B1 D4.43088
G1 X110.934 Y90.573 B1 D0.04824
G1 X110.818 Y90.814 B1 D0.04814
G1 X110.71 Y90.944 B1 D0.03042
G1 X110.499 Y91.155 B1 D0.05371
G1 X110.284 Y91.314 B1 D0.04813
G1 X110.032 Y91.403 B1 D0.04811
G1 X109.863 Y91.419 B1 D0.03056
G1 X82.137 Y91.419 B1 D4.99068
G1 X81.872 Y91.379 B1 D0.04824
G1 X81.631 Y91.263 B1 D0.04814
G1 X81.501 Y91.155 B1 D0.03042
G1 X81.29 Y90.944 B1 D0.05371
G1 X81.131 Y90.729 B1 D0.04813
G1 X81.042 Y90.477 B1 D0.04811
G1 X81.026 Y90.308 B1 D0.03056
G1 X81.026 Y65.692 B1 D4.43088
G1 X81.066 Y65.427 B1 D0.04824
G1 X81.182 Y65.186 B1 D0.04814
G1 X81.29 Y65.056 B1 D0.03042
G0 F3600 X81.714 Y65.48
M104 S185
G1 F1200 X81.925 Y65.269 B1 D0.05371
G1 X82.058 Y65.192 B1 D0.02766
G1 X82.137 Y65.181 B1 D0.01436
G1 X109.863 Y65.181 B1 D4.99068
G1 X110.012 Y65.22 B1 D0.02772
G1 X110.075 Y65.269 B1 D0.01437
G1 X110.286 Y65.48 B1 D0.05371
G1 X110.363 Y65.613 B1 D0.02766
G1 X110.374 Y65.692 B1 D0.01436
G1 X110.374 Y90.308 B1 D4.43088
G1 X110.335 Y90.457 B1 D0.02772
G1 X110.286 Y90.52 B1 D0.01437
G1 X110.075 Y90.731 B1 D0.05371
G1 X109.942 Y90.808 B1 D0.02766
G1 X109.863 Y90.819 B1 D0.01436
G1 X82.137 Y90.819 B1 D4.99068
G1 X81.988 Y90.78 B1 D0.02772
G1 X81.925 Y90.731 B1 D0.01437
G1 X81.714 Y90.52 B1 D0.05371
G1 X81.637 Y90.387 B1 D0.02766
G1 X81.626 Y90.308 B1 D0.01436
G1 X81.626 Y65.692 B1 D4.43088
G1 X81.665 Y65.543 B1 D0.02772
G1 X81.714 Y65.48 B1 D0.01437
G10
 ;MESH:2_color_box_a.STL
G0 F3600 X81.455 Y65.223
G0 X81.265 Y65.418
G0 X81.265 Y90.582
G0 X81.863 Y91.18
G0 X101.714 Y91.184
G0 X101.714 Y85.48
T1
M109 T250
M109 

M104 S175 ; removed T0 from the middle
G0 F1600 X121.714 Y105.48 Z0.3
G10
G0 X121.714 Y115.48
G0 X111.548 Y93.7
 ;TYPE:SKIRT
G11
G1 F1200 X111.057 Y93.915 B1 E0.11578
G1 X110.539 Y94.055 B1 E0.1159
G1 X109.863 Y94.119 B1 E0.14667
G1 X82.137 Y94.119 B1 E5.98882
G1 X81.602 Y94.079 B1 E0.11588
G1 X81.079 Y93.96 B1 E0.11586
G1 X80.58 Y93.765 B1 E0.11572
G1 X80.115 Y93.497 B1 E0.11593
G1 X79.591 Y93.065 B1 E0.14669
G1 X79.38 Y92.854 B1 E0.06445
G1 X79.031 Y92.447 B1 E0.11581
G1 X78.745 Y91.993 B1 E0.1159
G1 X78.53 Y91.502 B1 E0.11578
G1 X78.39 Y90.984 B1 E0.1159
G1 X78.326 Y90.308 B1 E0.14667
G1 X78.326 Y65.692 B1 E5.31706
G1 X78.366 Y65.157 B1 E0.11588
G1 X78.485 Y64.634 B1 E0.11586
G1 X78.68 Y64.135 B1 E0.11572
G1 X78.948 Y63.67 B1 E0.11593
G1 X79.38 Y63.146 B1 E0.14669
G1 X79.591 Y62.935 B1 E0.06445
G1 X79.998 Y62.586 B1 E0.11581
G1 X80.452 Y62.3 B1 E0.1159
G1 X80.943 Y62.085 B1 E0.11578
G1 X81.461 Y61.945 B1 E0.1159
G1 X82.137 Y61.881 B1 E0.14667
G1 X109.863 Y61.881 B1 E5.98882
G1 X110.398 Y61.921 B1 E0.11588
G1 X110.921 Y62.04 B1 E0.11586
G1 X111.42 Y62.235 B1 E0.11572
G1 X111.885 Y62.503 B1 E0.11593
G1 X112.409 Y62.935 B1 E0.14669
G1 X112.62 Y63.146 B1 E0.06445
G1 X112.969 Y63.553 B1 E0.11581
G1 X113.255 Y64.007 B1 E0.1159
G1 X113.47 Y64.498 B1 E0.11578
G1 X113.61 Y65.016 B1 E0.1159
G1 X113.674 Y65.692 B1 E0.14667
G1 X113.674 Y90.308 B1 E5.31706
G1 X113.634 Y90.843 B1 E0.11588
G1 X113.515 Y91.366 B1 E0.11586
G1 X113.32 Y91.865 B1 E0.11572
G1 X113.052 Y92.33 B1 E0.11593
G1 X112.62 Y92.854 B1 E0.14669
G1 X112.409 Y93.065 B1 E0.06445
G1 X112.002 Y93.414 B1 E0.11581
G1 X111.548 Y93.7 B1 E0.1159
G0 F1600 X111.121 Y93.11
G1 F1200 X110.673 Y93.283 B1 E0.10373
G1 X110.204 Y93.379 B1 E0.1034
G1 X109.863 Y93.399 B1 E0.07378
G1 X82.137 Y93.399 B1 E5.98882
G1 X81.659 Y93.359 B1 E0.10361
G1 X81.194 Y93.24 B1 E0.10368
G1 X80.756 Y93.046 B1 E0.10347
G1 X80.356 Y92.782 B1 E0.10352
G1 X80.101 Y92.555 B1 E0.07374
G1 X79.89 Y92.344 B1 E0.06445
G1 X79.58 Y91.978 B1 E0.1036
G1 X79.335 Y91.566 B1 E0.10354
G1 X79.162 Y91.118 B1 E0.10373
G1 X79.066 Y90.649 B1 E0.1034
G1 X79.046 Y90.308 B1 E0.07378
G1 X79.046 Y65.692 B1 E5.31706
G1 X79.086 Y65.214 B1 E0.10361
G1 X79.205 Y64.749 B1 E0.10368
G1 X79.399 Y64.311 B1 E0.10347
G1 X79.663 Y63.911 B1 E0.10352
G1 X79.89 Y63.656 B1 E0.07374
G1 X80.101 Y63.445 B1 E0.06445
G1 X80.467 Y63.135 B1 E0.1036
G1 X80.879 Y62.89 B1 E0.10354
G1 X81.327 Y62.717 B1 E0.10373
G1 X81.796 Y62.621 B1 E0.1034
G1 X82.137 Y62.601 B1 E0.07378
G1 X109.863 Y62.601 B1 E5.98882
G1 X110.341 Y62.641 B1 E0.10361
G1 X110.806 Y62.76 B1 E0.10368
G1 X111.244 Y62.954 B1 E0.10347
G1 X111.644 Y63.218 B1 E0.10352
G1 X111.899 Y63.445 B1 E0.07374
G1 X112.11 Y63.656 B1 E0.06445
G1 X112.42 Y64.022 B1 E0.1036
G1 X112.665 Y64.434 B1 E0.10354
G1 X112.838 Y64.882 B1 E0.10373
G1 X112.934 Y65.351 B1 E0.1034
G1 X112.954 Y65.692 B1 E0.07378
G1 X112.954 Y90.308 B1 E5.31706
G1 X112.914 Y90.786 B1 E0.10361
G1 X112.795 Y91.251 B1 E0.10368
G1 X112.601 Y91.689 B1 E0.10347
G1 X112.337 Y92.089 B1 E0.10352
G1 X112.11 Y92.344 B1 E0.07374
G1 X111.899 Y92.555 B1 E0.06445
G1 X111.533 Y92.865 B1 E0.1036
G1 X111.121 Y93.11 B1 E0.10354
G0 F1600 X110.705 Y92.508
G1 F1200 X110.309 Y92.633 B1 E0.0897
G1 X109.863 Y92.679 B1 E0.09685
G1 X82.137 Y92.679 B1 E5.98882
G1 X81.724 Y92.639 B1 E0.08963
G1 X81.326 Y92.521 B1 E0.08967
G1 X80.958 Y92.329 B1 E0.08966
G1 X80.61 Y92.046 B1 E0.09689
G1 X80.399 Y91.835 B1 E0.06445
G1 X80.135 Y91.515 B1 E0.08961
G1 X79.937 Y91.15 B1 E0.08969
G1 X79.812 Y90.754 B1 E0.0897
G1 X79.766 Y90.308 B1 E0.09685
G1 X79.766 Y65.692 B1 E5.31706
G1 X79.806 Y65.279 B1 E0.08963
G1 X79.924 Y64.881 B1 E0.08967
G1 X80.116 Y64.513 B1 E0.08966
G1 X80.399 Y64.165 B1 E0.09689
G1 X80.61 Y63.954 B1 E0.06445
G1 X80.93 Y63.69 B1 E0.08961
G1 X81.295 Y63.492 B1 E0.08969
G1 X81.691 Y63.367 B1 E0.0897
G1 X82.137 Y63.321 B1 E0.09685
G1 X109.863 Y63.321 B1 E5.98882
G1 X110.276 Y63.361 B1 E0.08963
G1 X110.674 Y63.479 B1 E0.08967
G1 X111.042 Y63.671 B1 E0.08966
G1 X111.39 Y63.954 B1 E0.09689
G1 X111.601 Y64.165 B1 E0.06445
G1 X111.865 Y64.485 B1 E0.08961
G1 X112.063 Y64.85 B1 E0.08969
G1 X112.188 Y65.246 B1 E0.0897
G1 X112.234 Y65.692 B1 E0.09685
G1 X112.234 Y90.308 B1 E5.31706
G1 X112.194 Y90.721 B1 E0.08963
G1 X112.076 Y91.119 B1 E0.08967
G1 X111.884 Y91.487 B1 E0.08966
G1 X111.601 Y91.835 B1 E0.09689
G1 X111.39 Y92.046 B1 E0.06445
G1 X111.07 Y92.31 B1 E0.08961
G1 X110.705 Y92.508 B1 E0.08969
G10
G0 F1600 X108.98 Y89.425
G0 X108.924 Y89.369
G0 X109.714 Y90.159
 ;TYPE:WALL-OUTER
G11
G1 F600 X82.286 Y90.159 B1 E5.92445
G1 X82.286 Y65.841 B1 E5.25269
G1 X109.714 Y65.841 B1 E5.92445
G1 X109.714 Y90.159 B1 E5.25269
G0 F1600 X109.414 Y90.159
G0 X108.994 Y89.439
 ;TYPE:WALL-INNER
G1 F600 X83.006 Y89.439 B1 E5.61341
G1 X83.006 Y66.561 B1 E4.94165
G1 X108.994 Y66.561 B1 E5.61341
G1 X108.994 Y89.439 B1 E4.94165
G0 F1600 X108.274 Y88.719
G1 F600 X83.726 Y88.719 B1 E5.30237
G1 X83.726 Y67.281 B1 E4.63061
G1 X108.274 Y67.281 B1 E5.30237
G1 X108.274 Y88.719 B1 E4.63061
G0 F1600 X107.564 Y88.009
 ;TYPE:SKIN
G1 F600 X84.436 Y88.009 B1 E4.99565
G1 X84.436 Y67.991 B1 E4.32389
G1 X107.564 Y67.991 B1 E4.99565
G1 X107.564 Y88.009 B1 E4.32389
G0 F1600 X107.233 Y68.54
G1 F600 X107.014 Y68.321 B1 E0.0669
G0 F1600 X105.996 Y68.321
G1 F600 X107.233 Y69.558 B1 E0.37787
G0 F1600 X107.233 Y70.577
G1 F600 X104.977 Y68.321 B1 E0.68914
G0 F1600 X103.959 Y68.321
G1 F600 X107.233 Y71.595 B1 E1.00011
G0 F1600 X107.233 Y72.613
G1 F600 X102.941 Y68.321 B1 E1.31108
G0 F1600 X101.923 Y68.321
G1 F600 X107.233 Y73.631 B1 E1.62205
G0 F1600 X107.233 Y74.649
G1 F600 X100.904 Y68.321 B1 E1.93317
G0 F1600 X99.886 Y68.321
G1 F600 X107.233 Y75.668 B1 E2.24429
G0 F1600 X107.233 Y76.686
G1 F600 X98.868 Y68.321 B1 E2.55526
G0 F1600 X97.85 Y68.321
G1 F600 X107.233 Y77.704 B1 E2.86623
G0 F1600 X107.233 Y78.722
G1 F600 X96.831 Y68.321 B1 E3.17735
G0 F1600 X95.813 Y68.321
G1 F600 X107.233 Y79.741 B1 E3.48847
G0 F1600 X107.233 Y80.759
G1 F600 X94.795 Y68.321 B1 E3.79944
G0 F1600 X93.777 Y68.321
G1 F600 X107.233 Y81.777 B1 E4.11041
G0 F1600 X107.233 Y82.795
G1 F600 X92.758 Y68.321 B1 E4.42153
G0 F1600 X91.74 Y68.321
G1 F600 X107.233 Y83.814 B1 E4.73265
G0 F1600 X107.233 Y84.832
G1 F600 X90.722 Y68.321 B1 E5.04362
G0 F1600 X89.704 Y68.321
G1 F600 X107.233 Y85.85 B1 E5.35459
G0 F1600 X107.233 Y86.868
G1 F600 X88.686 Y68.321 B1 E5.66555
G0 F1600 X87.667 Y68.321
G1 F600 X107.024 Y87.678 B1 E5.91299
G0 F1600 X106.006 Y87.678
G1 F600 X86.649 Y68.321 B1 E5.91299
G0 F1600 X85.631 Y68.321
G1 F600 X104.988 Y87.678 B1 E5.91299
G0 F1600 X103.97 Y87.678
G1 F600 X84.765 Y68.473 B1 E5.86655
G0 F1600 X84.765 Y69.491
G1 F600 X102.951 Y87.678 B1 E5.55543
G0 F1600 X101.933 Y87.678
G1 F600 X84.765 Y70.509 B1 E5.24446
G0 F1600 X84.765 Y71.528
G1 F600 X100.915 Y87.678 B1 E4.93334
G0 F1600 X99.897 Y87.678
G1 F600 X84.765 Y72.546 B1 E4.62237
G0 F1600 X84.765 Y73.564
G1 F600 X98.878 Y87.678 B1 E4.31125
G0 F1600 X97.86 Y87.678
G1 F600 X84.765 Y74.582 B1 E4.00028
G0 F1600 X84.765 Y75.601
G1 F600 X96.842 Y87.678 B1 E3.68916
G0 F1600 X95.824 Y87.678
G1 F600 X84.765 Y76.619 B1 E3.37819
G0 F1600 X84.765 Y77.637
G1 F600 X94.806 Y87.678 B1 E3.06723
G0 F1600 X93.787 Y87.678
G1 F600 X84.765 Y78.656 B1 E2.75595
G0 F1600 X84.765 Y79.674
G1 F600 X92.769 Y87.678 B1 E2.44498
G0 F1600 X91.751 Y87.678
G1 F600 X84.765 Y80.692 B1 E2.13401
G0 F1600 X84.765 Y81.711
G1 F600 X90.733 Y87.678 B1 E1.82289
G0 F1600 X89.714 Y87.678
G1 F600 X84.765 Y82.729 B1 E1.51177
G0 F1600 X84.765 Y83.747
G1 F600 X88.696 Y87.678 B1 E1.2008
G0 F1600 X87.678 Y87.678
G1 F600 X84.765 Y84.765 B1 E0.88983
G0 F1600 X84.765 Y85.784
G1 F600 X86.66 Y87.678 B1 E0.57871
G0 F1600 X85.641 Y87.678
G1 F600 X84.765 Y86.802 B1 E0.26759
 ;MESH:NONMESH
G0 F1600 X108.574 Y89.019
 ;TIME_ELAPSED:149.649014

; Selected robox profile: dual, close valve "True"
; version 0.2
 M104 s200 T235  ;Robox Temp Nozzle fix 
  M140 S85 ; Robox Bed heat Fix 
 ;LAYER:1
M140 S95
M106 S255
 ;MESH:2_color_box_a.STL
G0 F3200 X108.574 Y89.019 Z0.6
 ;TYPE:WALL-INNER
G1 F1200 X83.426 Y89.019 B1 E4.52664
G1 X83.426 Y66.981 B1 E3.96684
G1 X108.574 Y66.981 B1 E4.52664
G1 X108.574 Y89.019 B1 E3.96684
G0 F3200 X109.174 Y89.619
G1 F1200 X82.826 Y89.619 B1 E4.74264
G1 X82.826 Y66.381 B1 E4.18284
G1 X109.174 Y66.381 B1 E4.74264
G1 X109.174 Y89.619 B1 E4.18284
G0 F3200 X109.774 Y90.219
 ;TYPE:WALL-OUTER
G1 F1200 X82.226 Y90.219 B1 E4.95864
G1 X82.226 Y65.781 B1 E4.39884
G1 X109.774 Y65.781 B1 E4.95864
G1 X109.774 Y90.219 B1 E4.39884
G0 F3200 X109.474 Y90.219
G0 X109.104 Y89.549
G0 X107.984 Y88.429
 ;TYPE:SKIN
G1 F750 X84.016 Y88.429 B1 E4.31424
G1 X84.016 Y67.571 B1 E3.75444
G1 X107.984 Y67.571 B1 E4.31424
G1 X107.984 Y88.429 B1 E3.75444
G0 F3200 X107.713 Y87.447
G1 F750 X107.002 Y88.159 B1 E0.18112
G0 F3200 X106.153 Y88.159
G1 F750 X107.713 Y86.599 B1 E0.39711
G0 F3200 X107.713 Y85.75
G1 F750 X105.305 Y88.159 B1 E0.6131
G0 F3200 X104.456 Y88.159
G1 F750 X107.713 Y84.902 B1 E0.8291
G0 F3200 X107.713 Y84.053
G1 F750 X103.608 Y88.159 B1 E1.04509
G0 F3200 X102.759 Y88.159
G1 F750 X107.713 Y83.205 B1 E1.26108
G0 F3200 X107.713 Y82.356
G1 F750 X101.911 Y88.159 B1 E1.47708
G0 F3200 X101.062 Y88.159
G1 F750 X107.713 Y81.508 B1 E1.69307
G0 F3200 X107.713 Y80.659
G1 F750 X100.214 Y88.159 B1 E1.90906
G0 F3200 X99.365 Y88.159
G1 F750 X107.713 Y79.811 B1 E2.12505
G0 F3200 X107.713 Y78.962
